X:1     %Music
T:morrisdancer     %Tune name
C:     %Tune composer
N:Produced using SharpEye2     %Tune infos
Q:1/4=120     %Tempo
V:1     %
     %!STAVE 0 'Piano 1' @
     %!INSTR 'Piano 1 [Ch1]' 0 0 @
M:2/4     %Meter
L:1/16     %
K:F
CB,CD EFGA |d2[d2B2E2] [c4B4E4] |c=Bcd efga |b2[d'2b2e2] [c'2b2e2]bc' |d'c'bg ecBG |DCB, G,4 z |z8 |[e6B6E6] af |c2ge B2fc |A4 GcBA |GBd3 ceg |fa c4 ae |c2ge B2fc |A4 AcBA |GAd3 ceg |f4 z2 fg |a2a2 gaeg |
f6 de |f2f2 g2g2 |a6 ac' |bd'g3 bag |ac'f3 agf |ec'd'b gfcB |A6 ac' |bd'g3 bag |ac'f3 agf |ec'bg ecBG |F4 z2 af |c2ge B2fc |A4 z cBA |GBd3 ceg |fa c4 af |c2ge B2gc |A4 z cBA |GBd3 ceg |f8 |
K:Bb
F2d2 d2ce |Ac B6 |B2b2 abc'b |ge d4 z2 |dfeg c3e |dcdf B3d |cBAc BAGB |AG F4 z2 |F2d2 d2ce |Ac B6 |B2b2 abc'b |ge d4 z2 |dfeg c3e |dcdf c2Bd |cBGc egf2 |A2 B6 |B2[g2e2] [g3e3]B |eg[f2d2] [f3d3]F |Bdef cedb |
fdcf F4 |B2[g2e2] [g3e3]B |eg[f2d2] [f3d3]F |Bdcc' afc=e |ga f6 |F2d2 d2ce |Ac B6 |B2b2 abc'b |ge d4 z2 |dfeg c3e |dcdf B2Bd |cBGc egf2 |A2 B6 |
K:F
afc2 geB2 |fc A4 z c |BAGB d3c |egfa c4 |afc2 geB2 |fc A4 z c |BAGB d3c |eg f4 z2 |fga2 a2ga |eg f6 |def2 f2g2 |g2 a6 |ac'bd' g2gb |agac' f3a |gfed' c'bge |cB A6 |ac'bd' g3b |agac' f3a |gfec' bgec |BG F4 z2 |
AFC2 GEB,2 |FC A,4 B,C |B,A,G,B, D3C |EGFA C4 |afc2 geB2 |fc A4 z c |BAGB d3c |egfa c'ceg |d'cfa c'ceg |c'c f4 z2 |z2 [e4B4E4] z2 |z2 [f2A2F2] z4 |]
V:2     %
     %!STAVE 0 'Piano 1' @
     %!INSTR 'Piano 1 [Ch1]' 0 0 @
M:2/4     %Meter
L:1/16     %
K:F
z8 |z2 [B,2C,2] [B,4C,4] |z8 |z2 [B2C2] [B4C4] |z8 |z4 E,C,B,,G,, |C,,8 |[B,8E,8C,8] |F,2[F2C2A,2] G,2[F2C2B,2] |A,2[F2C2] [F4C4] |B,,2[G,2D,2] C,2[B,2E,2] |F,2[F2C2A,2] B,,2[F2C2A,2] |F,2[F2C2A,2] G,2[E2C2B,2] |
A,2[F2C2] [F4C4] |B,,2[G,2D,2] C,2[B,2E,2] |F,2[F2C2G,2] [F4C4G,4] |[D2D,2][F2D2A,2] A,2[A2E2^C2] |[D2D,2][F2D2A,2] [F4D4A,4] |[D2D,2][F2D2A,2] B,2[G2D2] |A,2 [A4E4^C4] [A2E2C2] |[B,2B,,2][G2D2B,2] [G4D4B,4] |
[C2C,2][F2C2A,2] [F4C4A,4] |[C2C,2][E2C2B,2G,2] [E4C4B,4G,4] |[F,2F,,2][F2C2A,2] [F4C4A,4] |[B,2B,,2][G2D2B,2] [G4D4B,4] |[C2C,2][F2C2A,2] [F4C4A,4] |[C2C,2][E2C2B,2G,2] [E4C4B,4G,4] |[F,2F,,2][A,2F,2C,2] [A,4F,4C,4] |
[F,2F,,2][F2C2A,2] G,2[F2C2B,2] |A,2[F2C2] [F4C4] |B,,2[G,2D,2] C,2[B,2E,2] |F,2[C2A,2] C,2[C2A,2] |F,2[F2C2A,2] G,2[E2C2B,2] |A,2[F2C2] [F4C4] |B,,2[G,2D,2] C,2[B,2E,2] |F,2[F2C2A,2] [F4C4A,4] |
K:Bb
z2 [B,2B,,2] [D2B,2F,2]F,2 |[E2C2A,2][B,2B,,2] [D2B,2F,2][D2B,2F,2] |z2 [B,2B,,2] [E2B,2G,2][E2B,2G,2] |z2 [B,2B,,2] [D2B,2F,2][D2B,2F,2] |z2 [F,2F,,2] [E2A,2F,2][E2A,2F,2] |z2 [B,2B,,2] [D2B,2F,2][D2B,2F,2] |
z2 C,2 [D2A,2F,2]C,2 |[C2B,2G,2]F,2 [F2C2A,2][F2C2A,2] |z2 [B,2B,,2] [D2B,2F,2]F,2 |[F2C2A,2][B,2B,,2] [D2B,2F,2][D2B,2F,2] |z2 [B,2B,,2] [B,2G,2][B,2G,2] |z2 [B,2B,,2] [C2A,2F,2][C2B,2F,2] |z2 [F,2F,,2] [E2A,2F,2][E2A,2F,2] |
z2 [B,2B,,2] [D2B,2F,2][D2B,2F,2] |z2 E,2 [C2G,2]F,2 |[E2A,2][B,2B,,2] [D2B,2F,2][D2B,2F,2] |z2 [B,2B,,2] [E2B,2G,2][E2B,2G,2] |z2 [B,2B,,2] [D2B,2F,2][D2B,2F,2] |z2 F,2 [E2A,2][B,2B,,2] |[D2B,2F,2]F,2 [E2A,2][E2A,2] |
z2 [B,2B,,2] [E2B,2F,2][E2B,2F,2] |z2 [B,2B,,2] [D2B,2F,2][D2B,2F,2] |z2 C,2 [C2A,2F,2]C,2 |[D2B,2G,2]F,2 [E2A,2][E2A,2] |z2 [B,2B,,2] [D2B,2F,2]F,2 |[E2A,2][B,2B,,2] [D2B,2F,2][D2B,2F,2] |z2 [B,2B,,2] [E2B,2G,2][E2B,2G,2] |
z2 [B,2B,,2] [D2B,2F,2][D2B,2F,2] |z2 [F,2G,,2] [E2A,2F,2][E2A,2F,2] |z2 [B,2B,,2] [D2B,2F,2][D2B,2F,2] |z2 E,2 [C2G,2]F,2 |[E2A,2][B,2B,,2] [D2B,2F,2][D2B,2F,2] |
K:F
z2 F,2 [F2C2A,2]G,2 |[E2C2B,2]A,2 [F2C2][F2C2] |z2 C,2 [G,2D,2]C,2 |[B,2E,2]F,2 [F2C2A,2]C,2 |[F2C2A,2]F,2 [F2C2A,2]G,2 |[F2C2B,2]A,2 [F2C2][F2C2] |z2 B,,2 [G,2D,2]C,2 |[B,2E,2]F,2 [F2C2A,2][F2C2A,2] |
z2 [D2D,2] [F2D2A,2]A,2 |[G2E2^C2][D2D,2] [F2D2A,2][F2D2A,2] |z2 [D2D,2] [F2D2A,2]B,2 |[G2D2]A,2 [A2E2^C2][A2E2C2] |z2 [B,2B,,2] [G2D2B,2][G2D2B,2] |z2 [C2C,2] [F2C2A,2][F2C2A,2] |z2 [C2C,2] [E2C2B,2G,2][E2C2B,2G,2] |
[E2C2B,2G,2][F,2F,,2] [F2C2A,2][F2C2A,2] |z2 [B,2B,,2] [G2D2B,2][G2D2B,2] |z2 [C2C,2] [F2C2A,2][F2C2A,2] |z2 [C2C,2] [E2C2B,2G,2][F2C2B,2G,2] |z2 [F,2F,,2] [A,2F,2C,2][A,2F,2C,2] |F,,4 G,,4 |A,,4 A,,4 |
B,,4 C,4 |z2 [F,2F,,2] [A,2F,2C,2][A,2F,2C,2] |z2 F,2 [F2C2A,2]G,2 |[E2C2B,2]A,2 [F2C2][F2C2] |z2 B,,2 [G,2D,2]C,2 |[B,2E,2]F,2 [F2C2A,2]C,2 |[E2C2B,2]F,2 [F2C2A,2]C,2 |[E2C2B,2] [C4A,4F,4] z2 |z2 [B,4C,4] z2 |
z2 [A,2C,2F,,2] z4 |]
     %End of file
